X: 5
T: Caisleán An Óir
R: hornpipe
M: 4/4
L: 1/8
K: Gmix
|Bc |dGG^F G2 Bc |(3ddd de f2 ga| gfdc AdcA |GAGE FDCF |
|DGG^F G2 Bc |(3ddd de f2 ga| gfdc AdcA |(3GGG G^F G2 :||:
Bc|dgga _b2 ag| gfde f2 ga| gfdc AdcA |GAGE FDCF |
|DGG^F G2 Bc |(3ddd de f2 ga| gfdc AdcA |(3GGG G^F G2 :||


Tune 2170	Setting 15539

